svg/test.svg

<?xml version="1.0" encoding="UTF-8"?>
<svg xmlns="http://www.w3.org/2000/svg" xmlns:xlink="http://www.w3.org/1999/xlink" width="32" height="32" viewBox="0 0 32 32">
<path fill-rule="nonzero" fill="rgb(0%, 0%, 0%)" fill-opacity="1" d="M 4.480469 4.480469 C 3.390625 4.480469 2.558594 5.3125 2.558594 6.398438 L 2.558594 8.320312 L 29.441406 8.320312 L 29.441406 6.398438 C 29.441406 5.3125 28.609375 4.480469 27.519531 4.480469 Z M 5.121094 5.761719 C 5.472656 5.761719 5.757812 6.046875 5.761719 6.398438 C 5.722656 6.722656 5.449219 6.96875 5.121094 6.96875 C 4.792969 6.96875 4.515625 6.722656 4.480469 6.398438 C 4.480469 6.046875 4.765625 5.761719 5.121094 5.761719 M 7.039062 5.761719 C 7.269531 5.757812 7.484375 5.878906 7.601562 6.078125 C 7.714844 6.277344 7.714844 6.523438 7.601562 6.722656 C 7.484375 6.921875 7.269531 7.042969 7.039062 7.039062 C 6.800781 7.054688 6.574219 6.9375 6.449219 6.734375 C 6.324219 6.527344 6.324219 6.273438 6.449219 6.066406 C 6.574219 5.863281 6.800781 5.746094 7.039062 5.761719 M 8.960938 5.761719 C 9.3125 5.761719 9.597656 6.046875 9.601562 6.398438 C 9.566406 6.722656 9.289062 6.96875 8.960938 6.96875 C 8.632812 6.96875 8.359375 6.722656 8.320312 6.398438 C 8.320312 6.046875 8.605469 5.761719 8.960938 5.761719 M 2.558594 9.601562 L 2.558594 25.601562 C 2.558594 26.660156 3.421875 27.519531 4.480469 27.519531 L 27.519531 27.519531 C 28.578125 27.519531 29.441406 26.660156 29.441406 25.601562 L 29.441406 9.601562 Z M 23.800781 12.8125 C 24.011719 12.851562 24.1875 12.996094 24.269531 13.195312 C 24.355469 13.390625 24.332031 13.617188 24.214844 13.796875 L 21.652344 17.636719 C 21.632812 17.664062 21.609375 17.6875 21.585938 17.710938 L 21.574219 17.734375 L 21.5625 17.738281 C 21.445312 17.855469 21.289062 17.921875 21.121094 17.921875 L 21.121094 17.917969 L 21.117188 17.917969 C 21.046875 17.914062 20.976562 17.902344 20.90625 17.878906 L 20.84375 17.847656 C 20.816406 17.835938 20.789062 17.828125 20.765625 17.8125 C 20.746094 17.800781 20.738281 17.78125 20.722656 17.769531 C 20.703125 17.753906 20.683594 17.746094 20.667969 17.730469 L 18.75 15.8125 C 18.570312 15.628906 18.515625 15.355469 18.613281 15.117188 C 18.707031 14.875 18.941406 14.71875 19.199219 14.71875 C 19.371094 14.71875 19.53125 14.789062 19.652344 14.90625 L 21.019531 16.277344 L 23.148438 13.085938 C 23.289062 12.871094 23.546875 12.761719 23.800781 12.8125 M 8.320312 14.71875 L 15.359375 14.71875 C 15.710938 14.71875 16 15.007812 16 15.359375 C 16 15.714844 15.710938 16 15.359375 16 L 8.320312 16 C 7.984375 15.976562 7.722656 15.699219 7.722656 15.359375 C 7.722656 15.023438 7.984375 14.742188 8.320312 14.71875 M 23.800781 19.210938 C 24.007812 19.253906 24.183594 19.394531 24.265625 19.59375 C 24.347656 19.789062 24.332031 20.015625 24.214844 20.195312 L 21.652344 24.035156 C 21.632812 24.0625 21.609375 24.082031 21.585938 24.113281 C 21.582031 24.117188 21.578125 24.125 21.574219 24.132812 L 21.5625 24.140625 C 21.507812 24.191406 21.445312 24.230469 21.378906 24.257812 C 21.296875 24.296875 21.210938 24.316406 21.121094 24.320312 L 21.117188 24.320312 C 21.046875 24.308594 20.976562 24.296875 20.90625 24.277344 C 20.882812 24.269531 20.863281 24.253906 20.84375 24.25 C 20.816406 24.238281 20.789062 24.226562 20.765625 24.207031 C 20.746094 24.199219 20.738281 24.183594 20.722656 24.167969 C 20.703125 24.15625 20.683594 24.148438 20.667969 24.132812 L 18.75 22.210938 C 18.628906 22.089844 18.5625 21.929688 18.5625 21.757812 C 18.5625 21.589844 18.628906 21.425781 18.75 21.308594 C 18.871094 21.1875 19.03125 21.121094 19.199219 21.121094 C 19.371094 21.121094 19.53125 21.1875 19.652344 21.308594 L 21.019531 22.675781 L 23.148438 19.484375 C 23.289062 19.265625 23.546875 19.15625 23.800781 19.210938 M 8.320312 21.121094 L 15.359375 21.121094 C 15.589844 21.109375 15.8125 21.230469 15.933594 21.429688 C 16.050781 21.632812 16.050781 21.882812 15.933594 22.085938 C 15.8125 22.285156 15.59375 22.40625 15.359375 22.398438 L 8.320312 22.398438 C 8.152344 22.394531 7.988281 22.328125 7.867188 22.210938 C 7.75 22.089844 7.683594 21.925781 7.683594 21.757812 C 7.683594 21.40625 7.96875 21.121094 8.320312 21.121094 "/>
</svg>

<svg role="img" viewBox="0 0 32 32" height="32" width="32" xmlns="http://www.w3.org/2000/svg"><path d="M4.48 4.48c-1.09 0-1.921.832-1.921 1.918V8.32H29.44V6.398c0-1.085-.832-1.918-1.921-1.918Zm.641 1.282c.352 0 .637.285.64.636a.644.644 0 0 1-1.28 0c0-.351.285-.636.64-.636m1.918 0a.64.64 0 0 1 .563.316c.113.2.113.445 0 .645a.64.64 0 0 1-.563.316.64.64 0 1 1 0-1.277m1.922 0c.351 0 .637.285.64.636a.644.644 0 0 1-1.28 0c0-.351.284-.636.64-.636m-6.402 3.84v16c0 1.058.863 1.918 1.921 1.918h23.04c1.058 0 1.921-.86 1.921-1.918v-16Zm21.242 3.21c.21.04.387.184.469.383a.635.635 0 0 1-.055.602l-2.563 3.84c-.02.027-.043.05-.066.074l-.012.023-.012.004a.62.62 0 0 1-.44.184v-.004h-.005a.802.802 0 0 1-.21-.04l-.063-.03c-.028-.012-.055-.02-.078-.035-.02-.012-.028-.032-.043-.043-.02-.016-.04-.024-.055-.04l-1.918-1.918a.645.645 0 0 1-.137-.695.627.627 0 0 1 .586-.398c.172 0 .332.07.453.187l1.368 1.371 2.128-3.191a.632.632 0 0 1 .653-.274M8.32 14.72h7.038a.64.64 0 0 1 0 1.281H8.32a.642.642 0 0 1 0-1.281m15.48 4.49a.642.642 0 0 1 .466.383.645.645 0 0 1-.051.601l-2.563 3.84c-.02.027-.043.047-.066.078-.004.004-.008.012-.012.02l-.012.008a.612.612 0 0 1-.183.117.658.658 0 0 1-.258.062h-.004a1.347 1.347 0 0 1-.21-.043c-.024-.007-.044-.023-.063-.027-.028-.012-.055-.023-.078-.043-.02-.008-.028-.023-.043-.039-.02-.012-.04-.02-.055-.035L18.75 22.21a.635.635 0 0 1 0-.902.635.635 0 0 1 .902 0l1.368 1.367 2.128-3.192a.625.625 0 0 1 .653-.273M8.32 21.12h7.038a.64.64 0 0 1 .575.309.656.656 0 0 1 0 .656c-.121.2-.34.32-.575.312H8.32a.677.677 0 0 1-.453-.187.655.655 0 0 1-.183-.453c0-.352.285-.637.636-.637"/></svg>
